X: 1
T: This is No' My Ain Hoose
T: This is No' My Ain Plaid
R: strathspey or reel
B: Aird's Airs and Melodies vol 1
L: 1/8
M: C
Z: Transcriptions by Jack Campin, July 1999; chords by John Chambers Aug 2007.
K: Am
  "(E7)"E \
| "Am"A/A/A AA "G"B2 G>B | "F"c2 B>A "G"(d/c/B/A/) G>B \
| "Am"A/A/A AA "G"B2 G>B | "F"c2 B>A "Em"G<E E:|
|: f \
| "Am"e>a e<c "G"d>g d<B | "F"c>c d/c/B/A/ "G"B<G G>d \
| "Am"e>a e<c "G"d>g d<B | "F"c2 B>A "Em"G<E E :|
